Adwaita++/apps/16/org.gnome.zbrown.KingsCross.svg

<svg height="16" width="16" xmlns="http://www.w3.org/2000/svg">
  <g fill="#444" transform="translate(12 11)">
    <path d="m-4-9a6.5 6.5 0 0 0 -5.99414 4h2.25391a4.5 4.5 0 0 1 3.74023-2 4.5 4.5 0 0 1 3.73828 2h2.25977a6.5 6.5 0 0 0 -5.99805-4zm-5.99805 9a6.5 6.5 0 0 0 5.99805 4 6.5 6.5 0 0 0 5.99414-4h-2.25391a4.5 4.5 0 0 1 -3.74023 2 4.5 4.5 0 0 1 -3.73828-2z"/>
    <rect height="3" rx="1" width="14" x="-11" y="-4"/>
  </g>
</svg>

<svg xmlns="http://www.w3.org/2000/svg" width="16" height="16" version="1.1">
 <title id="title9167">
  Gnome Symbolic Icon Theme
 </title>
 <g transform="translate(12,11)">
  <path fill="#444" d="m -4,-9 a 6.5,6.5 0 0 0 -5.99414,4 h 2.25391 A 4.5,4.5 0 0 1 -4,-7 4.5,4.5 0 0 1 -0.26172,-5 H 1.99805 A 6.5,6.5 0 0 0 -4,-9 Z M -9.99805,0 A 6.5,6.5 0 0 0 -4,4 6.5,6.5 0 0 0 1.99414,0 H -0.25977 A 4.5,4.5 0 0 1 -4,2 4.5,4.5 0 0 1 -7.73828,0 Z"/>
  <rect fill="#444" width="14" height="3" x="-11" y="-4" rx="1" ry="1"/>
 </g>
</svg>
